!!!OTL: Wo wu men qian yi shu tao
!!!ARE: Asia, China,ÿHunan, Hengshan
!! I, 498
!!!SCT: C1718
!!!YEM: Copyright 1995, estate of Helmut Schaffrath.
**kern
*ICvox
*Ivox
!! Mixed meters:  3/8; 4/8
*M4/8
*k[]
*C:
{[4.ee
=1
4ee]
8a}
=2
{8ee
8ee
8cc
=3
16a
16cc
8cc
8a
=4
8ee
8ee
16cc
16a
=5
8a
[4cc
=6
8cc]
8a
8a-
=7
4e}
{8a
=8
8ee
8cc
8ee
16gg
16ee
=9
*M3/8
8cc
16ee
16gg
[8ee
=10
4ee]
8cc
=11
8a
8a-
8e
=12
4.a}
=13
{16a
16g
8e
16g
16a
=14
*M4/8
8ee
8cc
8ee
8gg
=15
8ee
8cc
8gg
8ee}
=16
{8cc
8cc
8ee
8cc
=17
8gg
8cc
8ee
16gg
16ee}
=18
{8cc
16cc
16a
8cc
8ee
=19
8a
8a
8ee
8cc}
=20
*M3/8
{16cc
16a
8cc
8cc
=21
*M4/8
8a
8a
8ee
8ee}
=22
{8ee
8ee
8cc
8cc
=23
8ee
8a
8ee
8cc}
=24
{8g
16cc
16a
8a
8a
=25
8ee
8cc
8a
8cc}
=26
{16cc
16gg
16ee
16cc
16ee
16ee
8cc
=27
*M3/8
8ee
8cc
8a}
=28
*M4/8
{8cc
16a
16cc
8ee
8gg
=29
8ee
8gg
8cc
8ee
=30
*M3/8
4.ee
=31
[4.a
=32
8a]
8a-
8e
=33
[4.a
=34
4.a]}
==
!!!AGN: Shange, Lianhuan shange. Xin minge
!!!ONB: ESAC (Essen Associative Code) Database: ZHEN
!!!AMT: irregular
!!!AIN: vox
!!!EED: Helmut Schaffrath
!!!EEV: 1.0
*-
!!!ONB: Tied note syntax fixed by Craig Sapp, 2004/05/03/
